X: 42490
T: Wha'll Dance Wi' Wattie?
R: reel
M: 4/4
K: Amixolydian
|:edef gage|dcBG Bddf|edef gage|aefd cA A2:|
|:eAcA eAcA|d=cBG Bddf|eAcA eAce|faed cA A2:|

